X: 883
T: Young Tim Murphy
N:"Collected by Hartnett"
B:O'Neill's 883
Z:Transcribed by Dan G. Petersen, dangp@post6.tele.dk
M:6/8
L:1/8
K:D
(F/G/)|AFD DFA|Bcd A2A|Bcd AGF|GFG EFG|
AFD DFA|Bcd B2A|Bcd F2E|FDD D2:|
e|fef dBA|Bdd d2e|fef def|gfg e2a|
fed B2d|A2d F2A|Bdd F2E|FDD D2:|


